assets/images/ico_file.svg

<svg width="30" height="36" viewBox="0 0 30 36" fill="none" xmlns="http://www.w3.org/2000/svg">
<path d="M25.573 5.12219H24.9422H7.22475C6.02065 5.12219 5.0459 6.08972 5.0459 7.2849V31.5869C5.0459 32.7821 6.02065 33.7497 7.22475 33.7497H25.573C26.7771 33.7497 27.7518 32.7821 27.7518 31.5869V7.2849C27.7518 6.08972 26.7771 5.12219 25.573 5.12219Z" fill="#D3C9BE"/>
<path d="M1.49079 3.69937V30.904C1.49079 31.3024 1.14676 31.6439 0.745396 31.6439C0.344029 31.6439 0 31.3024 0 30.904V3.69937C0 1.65049 1.66281 0 3.72698 0H24.9421C25.3435 0 25.6875 0.341481 25.6875 0.739875C25.6875 1.13827 25.3435 1.47975 24.9421 1.47975H3.66964C2.46554 1.53666 1.49079 2.50419 1.49079 3.69937ZM29.2998 31.587C29.2998 33.6358 27.637 35.2863 25.5728 35.2863H7.22461C5.50446 35.2863 4.07101 34.1481 3.66964 32.6114C3.55497 32.4976 3.49763 32.3268 3.49763 32.1561V31.587V7.28492C3.49763 5.23604 5.16043 3.58555 7.22461 3.58555H24.9421H25.5728C27.637 3.58555 29.2998 5.23604 29.2998 7.28492V31.587Z" fill="#D3C9BE"/>
</svg>

<svg width="30" height="36" fill="none" xmlns="http://www.w3.org/2000/svg"><path d="M25.573 5.122H7.225a2.17 2.17 0 00-2.18 2.163v24.302a2.17 2.17 0 002.18 2.163h18.348a2.17 2.17 0 002.179-2.163V7.285a2.17 2.17 0 00-2.179-2.163z" fill="#D3C9BE"/><path d="M1.49 3.7v27.204c0 .398-.343.74-.745.74a.756.756 0 01-.745-.74V3.699C0 1.65 1.663 0 3.727 0h21.215c.401 0 .745.341.745.74 0 .398-.344.74-.745.74H3.67c-1.204.057-2.18 1.024-2.18 2.22zM29.3 31.586c0 2.049-1.663 3.7-3.727 3.7H7.225c-1.72 0-3.154-1.139-3.555-2.676a.644.644 0 01-.172-.455V7.285c0-2.049 1.662-3.7 3.727-3.7h18.347c2.065 0 3.728 1.651 3.728 3.7v24.302z" fill="#D3C9BE"/></svg>
